weblate/static/auth/facebook.svg

<svg width="1365.3" height="1365.3" version="1.1" viewBox="0 0 1365.3 1365.3" xmlns="http://www.w3.org/2000/svg"><g transform="matrix(1.3333 0 0 -1.3333 0 1365.3)"><g transform="scale(.1)"><path d="m10240 5120c0 2827.7-2292.3 5120-5120 5120s-5120-2292.3-5120-5120c0-2555.5 1872.3-4673.7 4320-5057.8v3577.8h-1300v1480h1300v1128c0 1283.2 764.38 1992 1933.9 1992 560.17 0 1146.1-100 1146.1-100v-1260h-645.62c-636.03 0-834.38-394.67-834.38-799.57v-960.43h1420l-227-1480h-1193v-3577.8c2447.7 384.1 4320 2502.3 4320 5057.8" fill="#1877f2"/><path d="m7113 3640 227 1480h-1420v960.43c0 404.9 198.35 799.57 834.38 799.57h645.62v1260s-585.93 100-1146.1 100c-1169.5 0-1933.9-708.8-1933.9-1992v-1128h-1300v-1480h1300v-3577.8c260.67-40.898 527.84-62.199 800-62.199s539.33 21.301 800 62.199v3577.8h1193" fill="#fff"/></g></g></svg>

<svg xmlns="http://www.w3.org/2000/svg" xmlns:svg="http://www.w3.org/2000/svg" id="svg2" width="1365.333" height="1365.333" version="1.1" viewBox="0 0 1365.333 1365.333" xml:space="preserve"><metadata id="metadata8"/><g id="g10" transform="matrix(1.3333333,0,0,-1.3333333,0,1365.3333)"><g id="g12" transform="scale(0.1)"><path id="path14" fill="#1877f2" fill-opacity="1" fill-rule="nonzero" stroke="none" d="m 10240,5120 c 0,2827.7 -2292.3,5120 -5120,5120 C 2292.3,10240 0,7947.7 0,5120 0,2564.46 1872.31,446.301 4320,62.1992 V 3640 H 3020 v 1480 h 1300 v 1128 c 0,1283.2 764.38,1992 1933.9,1992 560.17,0 1146.1,-100 1146.1,-100 V 6880 H 6754.38 C 6118.35,6880 5920,6485.33 5920,6080.43 V 5120 H 7340 L 7113,3640 H 5920 V 62.1992 C 8367.69,446.301 10240,2564.46 10240,5120"/><path id="path16" fill="#fff" fill-opacity="1" fill-rule="nonzero" stroke="none" d="m 7113,3640 227,1480 H 5920 v 960.43 c 0,404.9 198.35,799.57 834.38,799.57 H 7400 v 1260 c 0,0 -585.93,100 -1146.1,100 C 5084.38,8240 4320,7531.2 4320,6248 V 5120 H 3020 V 3640 H 4320 V 62.1992 C 4580.67,21.3008 4847.84,0 5120,0 c 272.16,0 539.33,21.3008 800,62.1992 V 3640 h 1193"/></g></g></svg>
